timer-plus.svg

<svg fill="currentColor" viewBox="0 0 24 24"><path d="M15 3H9V1h6zm-2 16c0 1.03.26 2 .71 2.83-.55.11-1.12.17-1.71.17a9 9 0 0 1 0-18c2.12 0 4.07.74 5.62 2l1.42-1.44c.51.44.96.9 1.41 1.41l-1.42 1.42A8.96 8.96 0 0 1 21 13v.35c-.64-.22-1.3-.35-2-.35-3.31 0-6 2.69-6 6m0-12h-2v7h2zm7 11v-3h-2v3h-3v2h3v3h2v-3h3v-2z"/></svg>

<svg  viewBox="0 0 24 24" fill="currentColor"><path  d="M15 3H9V1H15V3M13 19C13 20.03 13.26 21 13.71 21.83C13.16 21.94 12.59 22 12 22C7.03 22 3 17.97 3 13S7.03 4 12 4C14.12 4 16.07 4.74 17.62 6L19.04 4.56C19.55 5 20 5.46 20.45 5.97L19.03 7.39C20.26 8.93 21 10.88 21 13C21 13.12 21 13.23 21 13.35C20.36 13.13 19.7 13 19 13C15.69 13 13 15.69 13 19M13 7H11V14H13V7M20 18V15H18V18H15V20H18V23H20V20H23V18H20Z"/></svg>
